!!!COM: Bach, Johann Sebastian
!!!CDT: 1685/3//-1750/7/28/
!!!OTL@@DE: Dank sei Gott in der Höhe
!!!OTL@EN:  Thanks be to God in the highest
!!!AGN: 4-Part Chorale
!!!SCT: BH 311
!!!SCT: BWV 287
**harm	**root	**kern	**kern	**kern	**kern
!	!	!bass	!tenor	!alto	!soprno
*	*Iorgan	*Iorgan	*Iorgan	*Iorgan	*Iorgan
*	*	*clefF4	*clefF4	*clefG2	*clefG2
*M4/4	*M4/4	*M4/4	*M4/4	*M4/4	*M4/4
*met(c)	*met(c)	*met(c)	*met(c)	*met(c)	*met(c)
*MM60	*MM60	*MM60	*MM60	*MM60	*MM60
*k[b-e-a-d-]	*k[b-e-a-d-]	*k[b-e-a-d-]	*k[b-e-a-d-]	*k[b-e-a-d-]	*k[b-e-a-d-]
*>[A,A,B]	*>[A,A,B]	*>[A,A,B]	*>[A,A,B]	*>[A,A,B]	*>[A,A,B]
*>A	*>A	*>A	*>A	*>A	*>A
*A-:	*A-:	*A-:	*A-:	*A-:	*A-:
Vb	4CC	4G	4e-	4b-	4ee-
=1	=1	=1	=1	=1	=1
I	4FF	8A-	4e-	8a-	4cc
.	.	8G-	.	8b-	.
viiob/IV	4AA	8F	4g-	4cc	4ee-
.	.	8E-	.	.	.
IV	4BB-	4D-	4a-	8dd-	4ff
.	.	.	.	8cc	.
V	4CC	4E-	4g	8b-	4ee-
.	.	.	.	8cc	.
=2	=2	=2	=2	=2	=2
IVb	4BB-	4F	4a-	8dd-	2dd-
.	.	.	.	8cc	.
V7b	4CC	4G	4e-	4b-	.
I;	4FF;	4A-;	4e-;	4a-;	4cc;
I	4FF	4A-	4e-	4a-	4cc
=3	=3	=3	=3	=3	=3
V7d	4CC	8d-	4e-	4g	4b-
.	.	8c	.	.	.
I	4FF	8B-	4e-	4a-	4cc
.	.	8A-	.	.	.
V7	2CC	4e-	8e-	4a-	4b-
.	.	.	16d-	.	.
.	.	.	16c	.	.
.	.	4E-	4d-	4g	4b-
=4	=4	=4	=4	=4	=4
I;	2.FF;	2.A-;	2.c;	2.e-;	2.a-;
=:|!	=:|!	=:|!	=:|!	=:|!	=:|!
*>B	*>B	*>B	*>B	*>B	*>B
Vb	4CC	8G	4B-	8e-	4b-
.	.	8F	.	8f	.
=5	=5	=5	=5	=5	=5
V	4CC	8E-	4e-	4g	4b-
.	.	8e-	.	.	.
I	4FF	8d-	4A-	4e-	4cc
.	.	8c	.	.	.
ii	4GG	8B-	8d-	4f	4dd-
.	.	8A-	8c	.	.
Vb	4CC	4G	4B-	4e-	8ee-
.	.	.	.	.	8dd-
=6	=6	=6	=6	=6	=6
I	4.FF	4A-	8c	4.e-	2cc
.	.	.	8B-	.	.
.	.	8C	4A-	.	.
IV7	8BB-	8D-	.	8f	.
V;	4CC;	4E-;	4e-;	4g;	4b-;
*E-:	*E-:	*E-:	*E-:	*E-:	*E-:
I	4CC	4E-	4e-	4g	4b-
!!linebreak: 2
=7	=7	=7	=7	=7	=7
IV	8FF	8A-	8e-	4a-	8cc
viiob	8BB	8G	8f	.	8dd
I	4CC	8F	4g	4b-	4ee-
.	.	8E-	.	.	.
ii	4DD	4A-	4.f	4cc	8ff
.	.	.	.	.	8ee-
V7	4GG	4B-	.	4b-	4dd
.	.	.	16g	.	.
.	.	.	16a-	.	.
=8	=8	=8	=8	=8	=8
I;	2.CC;	2.E-;	2.g;	2.b-;	2.ee-;
*A-:	*A-:	*A-:	*A-:	*A-:	*A-:
V	4CC	4E-	4B-	4g	4ee-
=9	=9	=9	=9	=9	=9
I	4FF	8A-	4c	4e-	4cc
.	.	4G-	.	.	.
V7d/IV	4FF	.	4c	4a-	4ee-
.	.	16F	.	.	.
.	.	16E-	.	.	.
IV	4BB-	8D-	4d-	4a-	4ff
.	.	8c	.	.	.
viio7/II	4FF#	8B-	4c	4g-	4ee-
.	.	8A	.	.	.
=10	=10	=10	=10	=10	=10
ii	2GG	8B-	8d-	4.f	2dd-
.	.	8c	8e-	.	.
.	.	8d-	4f	.	.
.	.	8e-	.	8g	.
V/II;	4DD;	4f;	4f;	4a;	4cc;
vi	4DD	8f	4a-	4f	4cc
.	.	8e-	.	.	.
=11	=11	=11	=11	=11	=11
V7d	4CC	8d-	4e-	4g	4b-
.	.	8c	.	.	.
I	4FF	8B-	4e-	4a-	4cc
.	.	8A-	.	.	.
V7	2CC	4e-	8e-	4a-	4b-
.	.	.	16d-	.	.
.	.	.	16c	.	.
.	.	4E-	4d-	4g	4b-
=12	=12	=12	=12	=12	=12
I;	2.FF;	2.A-;	2.c;	2.e-;	2.a-;
==|!	==|!	==|!	==|!	==|!	==|!
*-	*-	*-	*-	*-	*-
!!chor2scor: -l 2 -s 0.6 -o %b.pmx
!!!YEC: Copyright 2003 by Craig Stuart Sapp
!!!license: GNU General Public License (http://www.gnu.org/copyleft/gpl.html)
!!!SMA: 371 Bach Chorales, edited by Ludwig Erk, C.F. Peters
!!!PDT: 1850, 1865
!!!ONB: Harmony and Root analysis done manually by Craig Sapp
